icons/action/icon_nfs_m_black.svg

<?xml version="1.0" encoding="UTF-8"?>
<svg width="24px" height="24px" viewBox="0 0 24 24" version="1.1" xmlns="http://www.w3.org/2000/svg" xmlns:xlink="http://www.w3.org/1999/xlink">
    <!-- Generator: Sketch 48.2 (47327) - http://www.bohemiancoding.com/sketch -->
    <title>icon_nfs__m__black</title>
    <desc>Created with Sketch.</desc>
    <defs></defs>
    <g id="set" stroke="none" stroke-width="1" fill="none" fill-rule="evenodd">
        <g id="icon_nfs__m__black">
            <rect id="_ph_" x="0" y="0" width="24" height="24"></rect>
            <g id="icon_tool_contactless__m">
                <rect id="ph" x="0" y="0" width="24" height="24"></rect>
                <path d="M15.6350895,21.5898113 C20.7193035,16.2917626 20.7193035,7.70713874 15.6350895,2.4090901 C15.4056496,2.17000025 15.4134724,1.79018181 15.6525622,1.56074188 C15.8916521,1.33130194 16.2714705,1.33912474 16.5009105,1.57821459 C22.0306965,7.34057544 22.0306965,16.6583259 16.5009105,22.4206868 C16.2714705,22.6597766 15.8916521,22.6675994 15.6525622,22.4381595 C15.4134724,22.2087196 15.4056496,21.8289011 15.6350895,21.5898113 Z M11.8458203,18.6589808 C15.3759932,14.9808793 15.3759932,9.01782199 11.8458203,5.33972044 C11.6163627,5.10064758 11.6241573,4.72082857 11.8632302,4.49137092 C12.102303,4.26191328 12.4821221,4.26970795 12.7115797,4.5087808 C16.6874068,8.65121123 16.6874068,15.34749 12.7115797,19.4899204 C12.4821221,19.7289933 12.102303,19.736788 11.8632302,19.5073303 C11.6241573,19.2778727 11.6163627,18.8980537 11.8458203,18.6589808 Z M8.05635364,16.5206111 C10.4516155,14.0241762 10.4516155,9.97512536 8.05635364,7.47869053 C7.82693436,7.23958086 7.83478998,6.8597631 8.07389965,6.63034383 C8.31300933,6.40092455 8.69282709,6.40878017 8.92224636,6.64788984 C11.7629845,9.60861743 11.7629845,14.3906842 8.92224636,17.3514118 C8.69282709,17.5905214 8.31300933,17.598377 8.07389965,17.3689578 C7.83478998,17.1395385 7.82693436,16.7597207 8.05635364,16.5206111 Z M4.26707108,14.2164576 C5.44030964,12.9937657 5.44030964,11.0049356 4.26707108,9.78224361 C4.03764177,9.54314357 4.04548143,9.16332548 4.28458147,8.93389617 C4.52368151,8.70446685 4.9034996,8.71230652 5.13292892,8.95140656 C6.75169036,10.6384007 6.75169036,13.3603005 5.13292892,15.0472947 C4.9034996,15.2863947 4.52368151,15.2942344 4.28458147,15.0648051 C4.04548143,14.8353758 4.03764177,14.4555577 4.26707108,14.2164576 Z" id="Combined-Shape" fill="#0F2338" fill-rule="nonzero"></path>
            </g>
        </g>
    </g>
</svg>

<svg width="24" height="24" viewBox="0 0 24 24" xmlns="http://www.w3.org/2000/svg"><g fill="none" fill-rule="evenodd"><path d="M0 0h24v24H0z"/><path d="M0 0h24v24H0z"/><path d="M15.635 21.59c5.084-5.298 5.084-13.883 0-19.18a.6.6 0 0 1 .866-.832c5.53 5.763 5.53 15.08 0 20.843a.6.6 0 0 1-.866-.831zm-3.79-2.931c3.531-3.678 3.531-9.641 0-13.32a.6.6 0 0 1 .867-.83c3.975 4.142 3.975 10.838 0 14.98a.6.6 0 1 1-.866-.83zm-3.789-2.138c2.396-2.497 2.396-6.546 0-9.042a.6.6 0 1 1 .866-.831c2.841 2.96 2.841 7.743 0 10.703a.6.6 0 0 1-.866-.83zm-3.789-2.305c1.173-1.222 1.173-3.211 0-4.434a.6.6 0 1 1 .866-.83c1.619 1.686 1.619 4.408 0 6.095a.6.6 0 0 1-.866-.83z" fill="#0F2338" fill-rule="nonzero"/></g></svg>
